X:105
T: Scattery Island
Z: B.Black
R: slide
M: 12/8
L: 1/8
K: D
F2 A dcd F2 A dcd | e2 A cBA e2 A cBA |
F2 A dcd F2 A dcd | e2 A cBA B2 c d3 :|
a3 f2 e d2 d def | g2 g fgf e3 efg |
a3 f2 e d2 d def | e2 A cBA B2 c d3 :|
